assets/symbols/mulberry/spiders_web.svg

<svg height="850.394" viewBox="0 0 850.394 850.394" width="850.394" xmlns="http://www.w3.org/2000/svg"><g fill="none"><g stroke="#231f20" stroke-width="14"><path d="m484.963 425.567c0 25.226-23.315 45.67-52.082 45.67-28.764 0-52.086-20.444-52.086-45.67 0-25.219 23.322-45.667 52.086-45.667 28.766 0 52.082 20.448 52.082 45.667zm-349.496-197.393 249.2 168.535m-249.957-37.192 298.171 66.05m-257.405-56.987s42.094 6.909 58.612-22.754c16.527-29.66-1.835-52.946-1.835-52.946m64.581 101.744c6.455-.981 15.8-4.232 19.259-14.591 6.568-19.685-.968-29.572-.968-29.572m-2.579-2.855s33.129 14.341 52.134-5.71c22.712-23.956 16.027-42.487 16.027-42.487m228.814-143.703-179.655 259.674m288.354-187.963-261.387 176.783m262.147-45.436-285.346 65.673m206.83-144.934s-43.021 14.341-64.153-11.323c-21.14-25.662-3.781-58.125-3.781-58.125m110.966 157.014s-47.372 7.663-63.899-21.994c-16.527-29.663 1.832-52.953 1.832-52.953m-53.428 100.608s-20.016 4.502-30.403-13.454c-10.395-17.96-3.56-29.569-3.56-29.569"/><path d="m535.545 351.971s-17.833 6.948-30.553-5.833c-12.707-12.775-6.438-30.4-6.438-30.4m-191.367-209.948 119.652 314.119m.721-363.802-.494 321.561m109.609-248.439-97.7 251.908m-11.974-231.444s-12.294 43.657-45.397 46.736c-33.106 3.08-46.099-17.319-46.099-17.319m184.942-9.064s-17.093 36.712-50.907 33.736c-33.827-2.982-42.785-31.254-42.785-31.254m57.461 91.877s-11.726 27.919-32.411 26.435c-20.704-1.488-25.908-18.733-25.908-18.733"/><path d="m428.392 271.583s-4.606 24.271-22.315 27.626c-17.716 3.346-29.056-5.366-29.056-5.366m95.112-3.774s-.754 32.463 26.421 25.668m4.528-116.252s-1.526 45.359 53.596 35.867m-92.848 163.573c6.178 7.507 9.81 16.729 9.81 26.691 0 25.209-23.315 45.667-52.076 45.667-28.776 0-52.089-20.458-52.089-45.667 0-25.223 23.313-45.667 52.089-45.667 17.404 0 32.807 7.484 42.266 18.976m255.15 224.091-291.381-197.066m292.129 65.719-240.359-55.317m207.902 47.722s-50.399-8.374-66.92 21.289c-16.527 29.657 1.832 52.947 1.832 52.947m-40.597-97.636s-32.84-7.478-43.229 10.479c-10.4 17.963 5.483 33.294 5.483 33.294m-407.622 119.316 286.853-193.992m-287.604 62.652 242.343-55.786m-197.806 45.93s38.319-6.113 54.847 23.55c16.521 29.65-1.845 52.946-1.845 52.946m53.434-100.611s20.012-4.502 30.407 13.454c10.388 17.97-1.722 31.041-1.722 31.041m-15.098-108.706s17.992 11.999 16.153 32.674c-1.838 20.669-14.107 26.217-14.107 26.217m245.185 292.264-112.111-314.164m-8.269 363.843.487-321.577m-109.593 248.459 107.761-292.686m1.91 272.222s12.181-45.268 45.397-46.736c36.283-1.592 50.62 24.076 50.62 24.076m-192.487 5.275s20.104-39.681 53.928-36.699c33.827 2.982 42.783 31.249 42.783 31.249m-59.716-91.926s8.302-29.436 34.665-26.383c20.62 2.385 25.908 18.729 25.908 18.729"/><path d="m426.046 579.605s4.6-24.316 22.322-27.636c19.99-3.735 35.848 17.404 35.848 17.404m-289.871-195.512s19.623 29.442 6.039 70.961c-3.534 10.804-9.06 23.4-15.098 34.718m377.434-86.053s-19.548 10.489-17.723 31.161c1.846 20.675 16.969 31.499 16.969 31.499m104.873-84.553s-20.938 31.751-9.764 73.975c6.795 25.668 19.632 36.998 19.632 36.998m-440.843-187.966s92.095-12.077 107.189-107.946m35.403 381.426s3.245-36.881-21.058-51.557c-29.036-17.534-45.297-14.338-45.297-14.338"/><path d="m550.974 508.684s-36.127-6.224-52.602 16.202c-19.711 26.771-17.898 42.857-17.898 42.857m-138.369 88.944s-32.359-89.769-131.898-83.856m416.348-12.585s-94.816 10.811-111.993 109.03"/></g><path d="m0 0h850.394v850.394h-850.394z"/></g></svg>

<svg xmlns="http://www.w3.org/2000/svg" width="850.394" height="850.394" viewBox="0 0 850.394 850.394" overflow="visible"><path d="M484.963 425.567c0 25.226-23.315 45.67-52.082 45.67-28.764 0-52.086-20.444-52.086-45.67 0-25.219 23.322-45.667 52.086-45.667 28.766 0 52.082 20.448 52.082 45.667zM135.467 228.174l249.2 168.535M134.71 359.517l298.171 66.05M175.476 368.58s42.094 6.909 58.612-22.754c16.527-29.66-1.835-52.946-1.835-52.946M296.834 394.624c6.455-.981 15.8-4.232 19.259-14.591 6.568-19.685-.968-29.572-.968-29.572M312.546 347.606s33.129 14.341 52.134-5.71c22.712-23.956 16.027-42.487 16.027-42.487M609.521 155.706L429.866 415.38M718.22 227.417L456.833 404.2M718.98 358.764l-285.346 65.673M640.464 279.503s-43.021 14.341-64.153-11.323c-21.14-25.662-3.781-58.125-3.781-58.125M683.496 367.069s-47.372 7.663-63.899-21.994c-16.527-29.663 1.832-52.953 1.832-52.953M568.001 392.73s-20.016 4.502-30.403-13.454c-10.395-17.96-3.56-29.569-3.56-29.569" fill="none" stroke="#231f20" stroke-width="14"/><path d="M535.545 351.971s-17.833 6.948-30.553-5.833c-12.707-12.775-6.438-30.4-6.438-30.4M307.187 105.79l119.652 314.119M427.56 56.107l-.494 321.561M536.675 129.229l-97.7 251.908M427.001 149.693s-12.294 43.657-45.397 46.736c-33.106 3.08-46.099-17.319-46.099-17.319M520.447 170.046s-17.093 36.712-50.907 33.736c-33.827-2.982-42.785-31.254-42.785-31.254M484.216 264.405s-11.726 27.919-32.411 26.435c-20.704-1.488-25.908-18.733-25.908-18.733" fill="none" stroke="#231f20" stroke-width="14"/><path d="M428.392 271.583s-4.606 24.271-22.315 27.626c-17.716 3.346-29.056-5.366-29.056-5.366M472.133 290.069s-.754 32.463 26.421 25.668M503.082 199.485s-1.526 45.359 53.596 35.867M463.83 398.925c6.178 7.507 9.81 16.729 9.81 26.691 0 25.209-23.315 45.667-52.076 45.667-28.776 0-52.089-20.458-52.089-45.667 0-25.223 23.313-45.667 52.089-45.667 17.404 0 32.807 7.484 42.266 18.976M718.98 623.016L427.599 425.95M719.728 491.669l-240.359-55.317M687.271 484.074s-50.399-8.374-66.92 21.289c-16.527 29.657 1.832 52.947 1.832 52.947M581.586 460.674s-32.84-7.478-43.229 10.479c-10.4 17.963 5.483 33.294 5.483 33.294M136.218 623.763l286.853-193.992M135.467 492.423l242.343-55.786M180.004 482.567s38.319-6.113 54.847 23.55c16.521 29.65-1.845 52.946-1.845 52.946M286.44 458.452s20.012-4.502 30.407 13.454c10.388 17.97-1.722 31.041-1.722 31.041M300.027 394.241s17.992 11.999 16.153 32.674c-1.838 20.669-14.107 26.217-14.107 26.217M547.258 745.396L435.147 431.232M426.878 795.075l.487-321.577M317.772 721.957l107.761-292.686M427.443 701.493s12.181-45.268 45.397-46.736c36.283-1.592 50.62 24.076 50.62 24.076M330.973 684.108s20.104-39.681 53.928-36.699c33.827 2.982 42.783 31.249 42.783 31.249M367.968 586.732s8.302-29.436 34.665-26.383c20.62 2.385 25.908 18.729 25.908 18.729" fill="none" stroke="#231f20" stroke-width="14"/><path d="M426.046 579.605s4.6-24.316 22.322-27.636c19.99-3.735 35.848 17.404 35.848 17.404M194.345 373.861s19.623 29.442 6.039 70.961c-3.534 10.804-9.06 23.4-15.098 34.718M562.72 393.487s-19.548 10.489-17.723 31.161c1.846 20.675 16.969 31.499 16.969 31.499M666.839 371.594s-20.938 31.751-9.764 73.975c6.795 25.668 19.632 36.998 19.632 36.998M235.864 294.601s92.095-12.077 107.189-107.946M378.456 568.081s3.245-36.881-21.058-51.557c-29.036-17.534-45.297-14.338-45.297-14.338" fill="none" stroke="#231f20" stroke-width="14"/><path d="M550.974 508.684s-36.127-6.224-52.602 16.202c-19.711 26.771-17.898 42.857-17.898 42.857M342.105 656.687s-32.359-89.769-131.898-83.856M626.555 560.246s-94.816 10.811-111.993 109.03" fill="none" stroke="#231f20" stroke-width="14"/><path fill="none" d="M0 0h850.394v850.394H0z"/></svg>
